src/assets/img/providers-white/evoplay.svg

<svg width="134" height="22" viewBox="0 0 134 22" fill="none" xmlns="http://www.w3.org/2000/svg">
<g clip-path="url(#clip0_4052_7795)">
<path fill-rule="evenodd" clip-rule="evenodd" d="M0.266663 10.7942V5.92178L22.7286 0.000976562L20.3387 5.62648L0.266663 10.7942ZM0.266663 11.7244V16.4493L16.7026 14.1459L18.8432 9.11107L0.266663 11.7244ZM0.266663 17.3496V22.0006H13.345L15.3243 17.3496H0.266663ZM36.8923 13.5849H32.4937V16.095H40.9243V19.8158H28.1978V4.01712H40.9096L40.8949 4.04665L39.3408 7.7379H32.4937V10.1299H38.3291L36.8923 13.5849ZM82.5342 4.01697H75.8044V19.8156H80.2029V15.2975H82.3728C84.1204 15.3877 85.8459 14.8661 87.2554 13.821C87.8736 13.3208 88.3649 12.6798 88.689 11.9507C89.0125 11.2215 89.1591 10.4253 89.1173 9.62771C89.1569 8.85125 89.0183 8.07605 88.7132 7.36185C88.4082 6.64765 87.9447 6.01349 87.3581 5.50824C85.9816 4.44016 84.2678 3.91037 82.5342 4.01697ZM84.0001 11.3109C83.4838 11.6794 82.8576 11.8567 82.2262 11.813H80.1589V7.69347H82.1969C82.8547 7.65673 83.5051 7.84395 84.0441 8.22499C84.2568 8.40583 84.4262 8.63235 84.5406 8.88785C84.655 9.14341 84.7107 9.42142 84.7041 9.70155C84.7276 10.0032 84.6807 10.3062 84.5655 10.5859C84.4511 10.8656 84.2722 11.114 84.0441 11.3109H84.0001ZM90.5686 4.01712H94.9231V15.9768H101.8L100.186 19.8158H90.5686V4.01712ZM109.203 3.89896L103.588 17.2762L102.532 19.8158H107.107L108.221 16.9956H114.277L115.42 19.8158H120.082L113.397 3.89896H109.203ZM109.497 13.5848L111.271 9.15537L113.015 13.5848H109.497ZM125.611 9.77554L128.866 4.01712H133.733L127.766 13.8359V19.8158H123.397V13.895L117.43 4.01712H122.385L125.611 9.77554ZM53.7678 4.01712L50.205 14.0131L46.6422 4.01712H41.7745L48.1377 19.9339H52.1697L58.5476 4.01712H53.7678ZM61.3632 5.11993C62.7038 4.21786 64.2799 3.73639 65.8922 3.73639C68.0543 3.73639 70.1278 4.60131 71.6565 6.14087C73.1853 7.68044 74.0444 9.76854 74.0444 11.9458C74.0444 13.5695 73.5661 15.1566 72.6704 16.5067C71.7746 17.8567 70.5015 18.909 69.0118 19.5303C67.5223 20.1517 65.8832 20.3142 64.3019 19.9974C62.7205 19.6807 61.268 18.8988 60.1279 17.7507C58.9878 16.6026 58.2115 15.1398 57.8969 13.5473C57.5823 11.9549 57.7438 10.3042 58.3608 8.8042C58.9778 7.30412 60.0226 6.02199 61.3632 5.11993ZM63.5137 15.5306C64.2178 16.0044 65.0455 16.2572 65.8922 16.2572V16.2424C67.0252 16.2424 68.1119 15.7902 68.9144 14.9849C69.7169 14.1795 70.1696 13.0867 70.1735 11.9458C70.1735 11.0931 69.9224 10.2595 69.452 9.55052C68.9816 8.84146 68.3129 8.28889 67.5306 7.96256C66.7483 7.63622 65.8875 7.55086 65.057 7.71726C64.2266 7.88358 63.4637 8.29417 62.8649 8.89719C62.2662 9.50014 61.8584 10.2684 61.6932 11.1047C61.528 11.941 61.6128 12.8079 61.9369 13.5957C62.2609 14.3835 62.8097 15.0568 63.5137 15.5306Z" fill="white"/>
</g>
<defs>
<clipPath id="clip0_4052_7795">
<rect width="133.467" height="22" fill="white" transform="translate(0.266663 0.000976562)"/>
</clipPath>
</defs>
</svg>

<svg width="134" height="22" fill="none" xmlns="http://www.w3.org/2000/svg"><g clip-path="url(#a)"><path fill-rule="evenodd" clip-rule="evenodd" d="M.267 10.794V5.922L22.729 0l-2.39 5.625L.267 10.794Zm0 .93v4.725l16.436-2.303 2.14-5.035L.267 11.724Zm0 5.626V22h13.078l1.98-4.65H.266Zm36.625-3.765h-4.398v2.51h8.43v3.72H28.198V4.018H40.91l-.015.03-1.554 3.69h-6.847v2.393h5.835l-1.437 3.455Zm45.642-9.568h-6.73v15.799h4.399v-4.518h2.17a7.544 7.544 0 0 0 4.882-1.477 5.037 5.037 0 0 0 1.434-1.87c.324-.73.47-1.526.428-2.323a5.107 5.107 0 0 0-1.759-4.12 7.152 7.152 0 0 0-4.824-1.491ZM84 11.311a2.728 2.728 0 0 1-1.774.502H80.16v-4.12h2.038a2.917 2.917 0 0 1 1.847.532 1.875 1.875 0 0 1 .66 1.477 1.928 1.928 0 0 1-.66 1.609H84Zm6.569-7.294h4.354v11.96h6.877l-1.614 3.839h-9.617V4.017Zm18.634-.118-5.615 13.377-1.056 2.54h4.575l1.114-2.82h6.056l1.143 2.82h4.662l-6.685-15.917h-4.194Zm.294 9.686 1.774-4.43 1.744 4.43h-3.518Zm16.114-3.81 3.255-5.758h4.867l-5.967 9.819v5.98h-4.369v-5.921l-5.967-9.878h4.955l3.226 5.759ZM53.768 4.018l-3.563 9.996-3.563-9.996h-4.867l6.363 15.917h4.032l6.378-15.917h-4.78Zm7.595 1.103a8.111 8.111 0 0 1 10.293 1.02 8.251 8.251 0 0 1 1.014 10.366 8.164 8.164 0 0 1-3.658 3.024 8.098 8.098 0 0 1-4.71.467 8.134 8.134 0 0 1-4.174-2.246 8.228 8.228 0 0 1-2.231-4.204 8.262 8.262 0 0 1 .464-4.743 8.197 8.197 0 0 1 3.002-3.684Zm2.15 10.41a4.26 4.26 0 0 0 2.38.727v-.015c1.132 0 2.219-.452 3.021-1.257a4.327 4.327 0 0 0 1.26-3.04c0-.852-.252-1.686-.722-2.394a4.288 4.288 0 0 0-1.921-1.588 4.253 4.253 0 0 0-4.666.934 4.339 4.339 0 0 0-.928 4.699 4.305 4.305 0 0 0 1.577 1.935Z" fill="#fff"/></g><defs><clipPath id="a"><path fill="#fff" transform="translate(.267 .001)" d="M0 0h133.467v22H0z"/></clipPath></defs></svg>
